svgs/sharp-solid/circle-4.svg

<svg xmlns="http://www.w3.org/2000/svg" viewBox="0 0 512 512"><!--! Font Awesome Pro 6.6.0 by @fontawesome - https://fontawesome.com License - https://fontawesome.com/license (Commercial License) Copyright 2024 Fonticons, Inc. --><path d="M0 256a256 256 0 1 1 512 0A256 256 0 1 1 0 256zm320-64l-48 0 0 24 0 56-64.4 0 40-144-49.8 0L152.9 289.6 144.4 320l31.6 0 96 0 0 40 0 24 48 0 0-24 0-40 8 0 24 0 0-48-24 0-8 0 0-56 0-24z"/></svg>

<svg xmlns="http://www.w3.org/2000/svg" viewBox="0 0 512 512"><!--! Font Awesome Pro 6.4.2 by @fontawesome - https://fontawesome.com License - https://fontawesome.com/license (Commercial License) Copyright 2023 Fonticons, Inc. --><path d="M0 256a256 256 0 1 1 512 0A256 256 0 1 1 0 256zm320-64H272v24 56H207.6l40-144H197.8L152.9 289.6 144.4 320H176h96v40 24h48V360 320h8 24V272H328h-8V216 192z"/></svg>
